X:1
T:Some One Who Knows
T:Edwin Othello Excell
T:Some One Who Knows
T:Public Domain
T:Public Domain
C:Edwin Othello Excell
Z:Public Domain
%%score ( 1 2 ) 3
L:1/8
M:6/8
K:Ab
V:1 treble 
V:2 treble 
V:3 bass 
V:1
 [CE] | [Ec]>[=D=B][Ec] [F_d]>[Ec][_D_B] | [CA]3 [CE]2 [CE] | [CF]>[CG][CA] [CF]>[CG][CA] | %4
w: 1.~How|ma- ny are lost in the|dark- ness, With|spir- its whose sor- row o’er-|
w: 2.~Go|forth to the need- y and|love them With|some- thing of Je- sus’ own|
w: 3.~They’re|wait- ing, per- haps for your|com- ing; You|sure- ly will hast- en to|
w: 4.~Wher-|ev- er are sin- ners a-|round you, By|woe or temp- ta- tion o’er-|
 [DG]3- [DG]2 [DF] | [DE]>[DG][EB] [Ed]>[Ec][EB] | [Ec]3 [EA]2 [EG] | %7
w: flows; * They|know not of Christ or sal-|va- tion, Ah!|
w: love, * And|win them to share in His|king- dom Of|
w: go, * And|teach them of life ev- er-|last- ing, The|
w: thrown, * Oh,|bid them take free- ly God’s|bless- ing, Make|
 [DF]>[EG][EA] [=DF]>[DG][DA] | [EB-]3 ([DB]2 =B) ||"^Refrain" [Ec]3 [CE]2 [CE] | %10
w: some one must tell them who|knows. * *||
w: glad- ness and glo- ry a-|bove. Some *|one must tell|
w: won- der- ful Gos- pel you|know. * *||
w: Je- sus the Com- fort- er|known. * *||
 [CF]<[CA][CF] [DG]2 [DF] | [DE]>[DG][GB] [df]<[ce][Bd] | [Ac]3- [Ac]2 [Ac] | %13
w: |||
w: them who knows The mer-|cy that Je- sus be- stows:|Oh, * let|
w: |||
w: |||
 [Ae]>[A=d][Ae] [G_d]2 E/E/ | [Ed]>[Ec][Ed] [Ec]2 E | [DF]<[DA][DF] E<[CA][DB] | [CA]3- [CA]2 |] %17
w: ||||
w: the Light shine, Tell the mess-|vine, For some one must|them who knows. * * *||
w: ||||
w: ||||
V:2
 x | x6 | x6 | x6 | x6 | x6 | x6 | x6 | x6 || x6 | x6 | x6 | x6 | x5 E/E/ | x5 E | x3 E/ x5/2 | %16
w: ||||||||||||||||
w: |||||||||||||age di-|tell||
 x5 |] %17
w: |
w: |
V:3
 [A,,E,] | [A,,E,]>[A,,E,][A,,E,] [E,G,]>[E,A,][E,G,] | [A,,A,]3 [A,,A,]2 [A,,E,] | %3
 [A,,E,]>[A,,E,][A,,E,] [A,,A,]>[A,,A,][A,,E,] | [B,,E,]3- [B,,E,]2 [E,G,] | %5
 [E,G,]>[E,B,][E,G,] [E,B,]>[E,A,][E,G,] | [A,,A,]3 [C,A,]2 [C,A,] | %7
 [D,A,]>[D,A,][C,A,] [B,,A,]>[B,,G,][B,,F,] | [E,G,]3- [E,G,]2 z || [A,,A,]3 [A,,A,]2 [A,,E,] | %10
 [A,,E,]<[A,,E,][A,,E,] [B,,E,]2 [E,G,] | [E,G,]>[E,B,][E,E] [E,E]<[E,E][E,E] | %12
 [A,E]3- [A,E]2 [A,E] | [A,C]>[A,=B,][A,C] [E,_B,]2 [E,D]/[E,D]/ | %14
 [E,B,]>[E,=A,][E,B,] [_A,,_A,]2 [C,A,] | [D,A,]<[F,A,][D,A,] [C,A,]<[F,A,][E,G,] | %16
 [A,,A,]3- [A,,A,]2 |] %17

